build/img/dc-inverter.svg

<svg xmlns="http://www.w3.org/2000/svg" viewBox="0 0 19.84 19.84"><path d="M19.13 15.57v-.49c-.05-.01-.1-.01-.14-.01-.38.01-.67.18-.82.49v-.48h-.48v2.74h.49v-1.43c0-.6.23-.84.68-.84.08 0 .17.01.27.02m-4.26.64c.04-.55.44-.77.87-.77.52 0 .82.39.83.77h-1.7zm0 .4h2.23c.07-.87-.47-1.57-1.35-1.57-.79 0-1.4.55-1.4 1.42 0 .81.51 1.43 1.42 1.43.7 0 1.16-.39 1.3-.86h-.51c-.12.27-.36.45-.79.45-.44 0-.88-.28-.9-.87m-1.94-2.21v.69h-.46v.37h.46v1.68c0 .57.13.69.68.69h.36v-.39h-.25c-.28 0-.3-.07-.3-.36v-1.62h.55v-.37h-.55v-.69h-.49zm-.63 1.17v-.49c-.05-.01-.1-.01-.14-.01-.38.01-.67.18-.82.49v-.48h-.48v2.74h.49v-1.43c0-.6.23-.84.68-.84.07 0 .16.01.27.02m-4.26.64c.04-.55.44-.77.87-.77.52 0 .82.39.83.77h-1.7zm-.01.4h2.23c.06-.87-.47-1.57-1.35-1.57-.79 0-1.4.55-1.4 1.42 0 .81.51 1.43 1.42 1.43.7 0 1.16-.39 1.3-.86h-.52c-.12.27-.36.45-.79.45-.43 0-.87-.28-.89-.87m-1.98.57l-.79-2.1h-.54l1.09 2.74h.44l1.09-2.74h-.5l-.79 2.1zM2.49 15.5v-.41H2v2.74h.49v-1.49c0-.59.29-.9.76-.9.56 0 .63.37.63.79v1.59h.49v-1.73c0-.63-.25-1.05-.95-1.05-.48 0-.76.2-.93.46m-1.29-.41H.71v2.74h.49v-2.74zm0-.96H.71v.56h.49v-.56z"/><path d="M18.91 7.53l-1.51 2.83c-1.78 3.33-4.18 3.33-5.96 0L9.92 7.53m-8.99 0L2.44 4.7c1.78-3.33 4.18-3.33 5.96 0l1.51 2.83" fill="none" stroke="#000" stroke-width=".5" stroke-linejoin="bevel" stroke-miterlimit="10"/></svg>

<?xml version="1.0" encoding="utf-8"?>
<!-- Generator: Adobe Illustrator 23.0.3, SVG Export Plug-In . SVG Version: 6.00 Build 0)  -->
<svg version="1.1" id="Слой_1" xmlns="http://www.w3.org/2000/svg" xmlns:xlink="http://www.w3.org/1999/xlink" x="0px" y="0px"
	 viewBox="0 0 19.84 19.84" style="enable-background:new 0 0 19.84 19.84;" xml:space="preserve">
<style type="text/css">
	.st0{fill:none;stroke:#000000;stroke-width:0.5;stroke-linejoin:bevel;stroke-miterlimit:10;}
</style>
<g>
	<g>
		<path d="M19.13,15.57v-0.49c-0.05-0.01-0.1-0.01-0.14-0.01c-0.38,0.01-0.67,0.18-0.82,0.49v-0.48h-0.48v2.74h0.49v-1.43
			c0-0.6,0.23-0.84,0.68-0.84C18.94,15.55,19.03,15.56,19.13,15.57 M14.87,16.21c0.04-0.55,0.44-0.77,0.87-0.77
			c0.52,0,0.82,0.39,0.83,0.77H14.87z M14.87,16.61h2.23c0.07-0.87-0.47-1.57-1.35-1.57c-0.79,0-1.4,0.55-1.4,1.42
			c0,0.81,0.51,1.43,1.42,1.43c0.7,0,1.16-0.39,1.3-0.86h-0.51c-0.12,0.27-0.36,0.45-0.79,0.45C15.33,17.48,14.89,17.2,14.87,16.61
			 M12.93,14.4v0.69h-0.46v0.37h0.46v1.68c0,0.57,0.13,0.69,0.68,0.69h0.36v-0.39h-0.25c-0.28,0-0.3-0.07-0.3-0.36v-1.62h0.55v-0.37
			h-0.55V14.4H12.93z M12.3,15.57v-0.49c-0.05-0.01-0.1-0.01-0.14-0.01c-0.38,0.01-0.67,0.18-0.82,0.49v-0.48h-0.48v2.74h0.49v-1.43
			c0-0.6,0.23-0.84,0.68-0.84C12.1,15.55,12.19,15.56,12.3,15.57 M8.04,16.21c0.04-0.55,0.44-0.77,0.87-0.77
			c0.52,0,0.82,0.39,0.83,0.77H8.04z M8.03,16.61h2.23c0.06-0.87-0.47-1.57-1.35-1.57c-0.79,0-1.4,0.55-1.4,1.42
			c0,0.81,0.51,1.43,1.42,1.43c0.7,0,1.16-0.39,1.3-0.86H9.71c-0.12,0.27-0.36,0.45-0.79,0.45C8.49,17.48,8.05,17.2,8.03,16.61
			 M6.05,17.18l-0.79-2.1H4.72l1.09,2.74h0.44l1.09-2.74h-0.5L6.05,17.18z M2.49,15.5v-0.41H2v2.74h0.49v-1.49
			c0-0.59,0.29-0.9,0.76-0.9c0.56,0,0.63,0.37,0.63,0.79v1.59h0.49v-1.73c0-0.63-0.25-1.05-0.95-1.05
			C2.94,15.04,2.66,15.24,2.49,15.5 M1.2,15.09H0.71v2.74H1.2V15.09z M1.2,14.13H0.71v0.56H1.2V14.13z"/>
	</g>
	<g>
		<path class="st0" d="M18.91,7.53l-1.51,2.83c-1.78,3.33-4.18,3.33-5.96,0L9.92,7.53 M0.93,7.53L2.44,4.7
			c1.78-3.33,4.18-3.33,5.96,0l1.51,2.83"/>
	</g>
</g>
</svg>
